src/assets/selectIcons/strumento_7.svg

<svg xmlns="http://www.w3.org/2000/svg" viewBox="0 0 512 512"><path d="M0 0h512v512H0z"/><path fill="#fff" d="M37 73v382h18V73zm418.045 0l1.91 382h18l-1.91-382zM105 160c-14.638 0-27.157 9.715-31.43 23-2.405 6.634-1.479 14.38-.574 18 3.61 14.3 16.641 25 32.004 25 14.17 0 26.36-9.102 31-21.736C140.64 216.898 152.83 226 167 226c15.363 0 28.394-10.7 32.004-25h238.682l-.09-18H198.43c-4.273-13.285-16.792-23-31.43-23-14.17 0-26.36 9.102-31 21.736C131.36 169.102 119.17 160 105 160zm0 18c8.39 0 15 6.61 15 15s-6.61 15-15 15-15-6.61-15-15 6.61-15 15-15zm62 0c8.39 0 17 6.61 17 15s-8.61 15-17 15-15-6.61-15-15 6.61-15 15-15zm33 45c-15.002 0-27.775 10.206-31.729 24H73v18h95.271c3.954 13.794 16.727 24 31.729 24 15.002 0 27.775-10.206 31.729-24h206.277l-.092-18H231.73c-3.954-13.794-16.727-24-31.729-24zm0 18c8.39 0 15 6.61 15 15s-6.61 15-15 15-15-6.61-15-15 6.61-15 15-15zm83 47c-14.638 0-27.157 9.715-31.43 23H73v18h177.996c3.61 14.3 16.641 25 32.004 25 14.17 0 26.36-9.102 31-21.736C318.64 344.898 330.83 354 345 354c14.17 0 26.36-9.102 31-21.736C380.64 344.898 392.83 354 407 354c15.363 0 28.394-10.7 32.004-25 1.31-3.077.621-13.458-.77-18C432 294.406 418.467 288.286 407 288c-14.17 0-26.36 9.102-31 21.736C371.36 297.102 359.17 288 345 288c-14.17 0-26.36 9.102-31 21.736C309.36 297.102 297.17 288 283 288zm62 66c-13.892 0-25.874 8.752-30.71 21H73v18h239.564c2.853 15.29 16.366 27 32.436 27s29.583-11.71 32.436-27h61.209l-.09-18H375.71c-4.837-12.248-16.819-21-30.711-21zm-62-48c8.39 0 15 6.61 15 15s-6.61 15-15 15-15-6.61-15-15 6.61-15 15-15zm62 0c8.39 0 15 6.61 15 15s-6.61 15-15 15-15-6.61-15-15 6.61-15 15-15zm62 0c8.39 0 15 6.61 15 15s-6.61 15-15 15-15-6.61-15-15 6.61-15 15-15zm-62 66c8.39 0 15 6.61 15 15s-6.61 15-15 15-15-6.61-15-15 6.61-15 15-15zM25 473v16h462v-16z"/></svg>

<?xml version="1.0" encoding="UTF-8" standalone="no"?>
<!DOCTYPE svg PUBLIC "-//W3C//DTD SVG 1.1//EN" "http://www.w3.org/Graphics/SVG/1.1/DTD/svg11.dtd">
<svg width="100%" height="100%" viewBox="0 0 512 512" version="1.1" xmlns="http://www.w3.org/2000/svg" xmlns:xlink="http://www.w3.org/1999/xlink" xml:space="preserve" xmlns:serif="http://www.serif.com/" style="fill-rule:evenodd;clip-rule:evenodd;stroke-linejoin:round;stroke-miterlimit:2;">
    <rect x="0" y="0" width="512" height="512" style="fill-rule:nonzero;"/>
    <path d="M37,73L37,455L55,455L55,73L37,73ZM455.045,73L456.955,455L474.955,455L473.045,73L455.045,73ZM105,160C90.362,160 77.843,169.715 73.57,183C71.165,189.634 72.091,197.38 72.996,201C76.606,215.3 89.637,226 105,226C119.17,226 131.36,216.898 136,204.264C140.64,216.898 152.83,226 167,226C182.363,226 195.394,215.3 199.004,201L437.686,201L437.596,183L198.43,183C194.157,169.715 181.638,160 167,160C152.83,160 140.64,169.102 136,181.736C131.36,169.102 119.17,160 105,160ZM105,178C113.39,178 120,184.61 120,193C120,201.39 113.39,208 105,208C96.61,208 90,201.39 90,193C90,184.61 96.61,178 105,178ZM167,178C175.39,178 184,184.61 184,193C184,201.39 175.39,208 167,208C158.61,208 152,201.39 152,193C152,184.61 158.61,178 167,178ZM200,223C184.998,223 172.225,233.206 168.271,247L73,247L73,265L168.271,265C172.225,278.794 184.998,289 200,289C215.002,289 227.775,278.794 231.729,265L438.006,265L437.914,247L231.73,247C227.776,233.206 215.003,223 200.001,223L200,223ZM200,241C208.39,241 215,247.61 215,256C215,264.39 208.39,271 200,271C191.61,271 185,264.39 185,256C185,247.61 191.61,241 200,241ZM283,288C268.362,288 255.843,297.715 251.57,311L73,311L73,329L250.996,329C254.606,343.3 267.637,354 283,354C297.17,354 309.36,344.898 314,332.264C318.64,344.898 330.83,354 345,354C359.17,354 371.36,344.898 376,332.264C380.64,344.898 392.83,354 407,354C422.363,354 435.394,343.3 439.004,329C440.314,325.923 439.625,315.542 438.234,311C432,294.406 418.467,288.286 407,288C392.83,288 380.64,297.102 376,309.736C371.36,297.102 359.17,288 345,288C330.83,288 318.64,297.102 314,309.736C309.36,297.102 297.17,288 283,288ZM345,354C331.108,354 319.126,362.752 314.29,375L73,375L73,393L312.564,393C315.417,408.29 328.93,420 345,420C361.07,420 374.583,408.29 377.436,393L438.645,393L438.555,375L375.71,375C370.873,362.752 358.891,354 344.999,354L345,354ZM283,306C291.39,306 298,312.61 298,321C298,329.39 291.39,336 283,336C274.61,336 268,329.39 268,321C268,312.61 274.61,306 283,306ZM345,306C353.39,306 360,312.61 360,321C360,329.39 353.39,336 345,336C336.61,336 330,329.39 330,321C330,312.61 336.61,306 345,306ZM407,306C415.39,306 422,312.61 422,321C422,329.39 415.39,336 407,336C398.61,336 392,329.39 392,321C392,312.61 398.61,306 407,306ZM345,372C353.39,372 360,378.61 360,387C360,395.39 353.39,402 345,402C336.61,402 330,395.39 330,387C330,378.61 336.61,372 345,372ZM25,473L25,489L487,489L487,473L25,473Z" style="fill:rgb(156,123,91);fill-rule:nonzero;"/>
</svg>
